src/symbols/alphanum/24C2.svg

<svg id="emoji" viewBox="0 0 72 72" xmlns="http://www.w3.org/2000/svg">
  <g id="grid">
    <path fill="#b3b3b3" d="M68,4V68H4V4H68m4-4H0V72H72V0Z"/>
    <path fill="none" stroke="#00a5ff" stroke-miterlimit="10" stroke-width="0.1" d="M12.923,10.9583H59.0769A1.9231,1.9231,0,0,1,61,12.8814V59.0352a1.9231,1.9231,0,0,1-1.9231,1.9231H12.9231A1.9231,1.9231,0,0,1,11,59.0352V12.8813A1.923,1.923,0,0,1,12.923,10.9583Z"/>
    <rect x="16" y="4" rx="2.2537" width="40" height="64" fill="none" stroke="#00a5ff" stroke-miterlimit="10" stroke-width="0.1"/>
    <rect x="16" y="4" rx="2.2537" width="40" height="64" transform="translate(72) rotate(90)" fill="none" stroke="#00a5ff" stroke-miterlimit="10" stroke-width="0.1"/>
    <circle cx="36" cy="36" r="29" fill="none" stroke="#00a5ff" stroke-miterlimit="10" stroke-width="0.1"/>
  </g>
  <g id="line-supplement">
    <g id="M_Button">
      <circle cx="36" cy="35.9583" r="28" fill="none" stroke="#000" stroke-linejoin="round" stroke-width="2"/>
      <polyline fill="none" stroke="#000" stroke-linecap="round" stroke-linejoin="round" stroke-width="2" points="45.429 46.458 45.429 24.458 36 43.315 26.571 24.458 26.571 46.458"/>
    </g>
  </g>
  <g id="color">
    <circle cx="36" cy="36" r="28" fill="#1e50a0"/>
  </g>
  <g id="line"/>
  <g id="color-foreground">
    <g id="M_Button-2">
      <circle cx="36" cy="36" r="28" fill="none" stroke="#fff" stroke-linejoin="round" stroke-width="2"/>
      <polyline fill="none" stroke="#fff" stroke-linecap="round" stroke-linejoin="round" stroke-width="2" points="45.429 46.5 45.429 24.5 36 43.357 26.571 24.5 26.571 46.5"/>
    </g>
  </g>
</svg>

<svg id="emoji" version="1.1" viewBox="0 0 72 72" xmlns="http://www.w3.org/2000/svg">
 <g id="grid">
  <path d="m68 4v64h-64v-64h64m4-4h-72v72h72z" fill="#b3b3b3"/>
  <path d="m12.92 10.96h46.15a1.923 1.923 0 0 1 1.923 1.923v46.15a1.923 1.923 0 0 1-1.923 1.923h-46.15a1.923 1.923 0 0 1-1.923-1.923v-46.15a1.923 1.923 0 0 1 1.923-1.923z" fill="none" stroke="#00a5ff" stroke-miterlimit="10" stroke-width=".1"/>
  <rect x="16" y="4" width="40" height="64" rx="2.254" fill="none" stroke="#00a5ff" stroke-miterlimit="10" stroke-width=".1"/>
  <rect transform="rotate(90,36,36)" x="16" y="4" width="40" height="64" rx="2.254" fill="none" stroke="#00a5ff" stroke-miterlimit="10" stroke-width=".1"/>
  <circle cx="36" cy="36" r="29" fill="none" stroke="#00a5ff" stroke-miterlimit="10" stroke-width=".1"/>
 </g>
 <g id="color" transform="matrix(.3013 0 0 .3013 -523.2 -12.34)">
  <circle transform="matrix(10.11 0 0 10.11 1891 130.3)" cx="-3.505" cy="2.983" r="9.189" fill="#92d3f5" stroke-width=".3282"/>
  <path transform="matrix(0 -10.11 -10.11 0 1891 130.3)" d="m-6.5 0.5h7l-6 3 6 3h-7" fill="none" stroke="#000" stroke-linecap="round" stroke-linejoin="round" stroke-width="2px"/>
 </g>
 <g id="line" transform="matrix(1.09,0,0,1.09,-3.216,-3.216)">
  <circle transform="matrix(2.795 0 0 2.795 45.78 27.64)" cx="-3.505" cy="2.983" r="9.189" fill="none" stroke="#000" stroke-linejoin="round" stroke-width=".6564"/>
 </g>
</svg>
